X:1
T:Abney (Treat), 87.87 D
T:Abney (Treat), 87.87 D
T:Charles C. Treat, 1888
T:Public Domain Courtesy of the Cyber Hymnal™
C:Charles C. Treat, 1888
Z:Public Domain
Z:Courtesy of the Cyber Hymnal™
%%score ( 1 2 ) 3
L:1/8
Q:1/4=110
M:4/4
K:Bb
V:1 treble 
V:2 treble 
V:3 bass 
V:1
 [DF]2 [DB]2 [EB]2 [EA]2 | [EA]2 [EG]2 [EG]2 [DF]2 | [DF]2 [DB]2 ([FA][FB]) ([Fc][Fd]) | %3
 [=Ec]2 E2 F4 | F2 [=Fd]2 [^Fd]2 [Gd]2 | [=EG]2 [Ec]2 [Fc]2 [FA]2 | %6
 [=EG]2 ([FA][EB]) [Fc]2 ([Fd][DB]) | [FA]2 [=EG]2 F4 | [EF]2 [EF]2 [EG]2 [EA]2 | %9
 [FB]2 [Ec]2 [Dd]2 [DB]2 | [EG]2 [GB]2 ([DF][EG]) ([EA][FB]) | [Gc]2 [G^c]2 [_Gd]4 | %12
 [Fd]2 ([Fc][Fd]) [Ge]2 [Ge]2 | [Ec]2 ([DB][Ec]) [Fd]2 [DB]2 | [Ff]2 [Fd]2 ([GB][FA]) ([EG][Ge]) | %15
 [Fd]2 [Ec]2 [DB]4 |] %16
V:2
 x8 | x8 | x8 | x2 =E2 F4 | ^F2 x6 | x8 | x8 | x4 F4 | x8 | x8 | x8 | x8 | x8 | x8 | x8 | x8 |] %16
V:3
 [B,,B,]2 [B,,B,]2 [F,C]2 [F,C]2 | [F,C]2 [F,C]2 [B,,B,]2 [B,,B,]2 | %2
 [B,,B,]2 [B,,B,]2 ([F,C][F,B,]) ([F,A,][F,B,]) | [C,G,C]2 [C,B,]2 [F,A,]4 | %4
 [B,D]2 [B,D]2 [A,C]2 [G,B,]2 | [C,G,]2 [C,B,]2 [F,A,]2 [F,C]2 | %6
 [C,C]2 ([F,C][G,C]) [A,C]2 ([B,,B,][B,,B,]) | [C,C]2 [C,B,]2 [F,A,]4 | %8
 [F,A,]2 [F,A,]2 [F,B,]2 [F,C]2 | [D,B,]2 [C,A,]2 [B,,B,]2 [B,,B,]2 | %10
 [E,B,]2 [E,B,]2 ([D,B,][E,B,]) ([C,A,][D,B,]) | [E,C]2 [E,B,]2 [D,A,]4 | %12
 [G,=B,]2 ([G,B,][G,B,]) [C,C]2 [C,C]2 | [F,A,]2 ([F,B,][F,A,]) [B,,B,]2 [B,,B,]2 | %14
 [D,B,]2 [D,B,]2 ([E,B,][E,B,]) ([E,B,][C,C]) | [F,B,]2 [F,A,]2 [B,,B,]4 |] %16

